X:0412
T:The Maid of the Mill.
M:6/8
L:1/8
Q:3/8=90
I: || ::
Z:Jack Campin * www.campin.me.uk * 2009
K:D
A|Add  dfd     |cde  a2(f/d/)| BBB    BcA    |   (d3 d2) |
A|Add  dfd     |cde  a2(f/d/)|.B.B.B (Bc).A  |   (d3 d2)||
A|Aaa  aba     |agf Tg2 f    | efg   (g/a/b)d|  (Td3 c2)
A|Bcd Ha2(e/d/)|cde Ha2(f/d/)|.B.B.B (Bc).A  |{A}(d3 d2)|]
<end>
<start>
